src/theme/images/streamlineIcons/galerie-outline.svg

<svg fill="none" height="24" viewBox="0 0 24 24" width="24" xmlns="http://www.w3.org/2000/svg" xmlns:xlink="http://www.w3.org/1999/xlink"><clipPath id="a"><path d="m0 0h24v24h-24z"/></clipPath><g clip-path="url(#a)" stroke="#5e5e5e" stroke-linecap="round" stroke-linejoin="round" stroke-width="1.5"><path d="m6.75.746094h10.5v22.500006h-10.5z"/><path d="m.75 3.74609h3v16.50001h-3z"/><path d="m20.25 3.74609h3v16.50001h-3z"/></g></svg>

<svg width="24" height="24" viewBox="0 0 24 24" fill="none" xmlns="http://www.w3.org/2000/svg">
<g clip-path="url(#clip0)">
<path d="M6.75 0.746094H17.25V23.2461H6.75V0.746094Z" stroke="#5E5E5E" stroke-width="1.5" stroke-linecap="round" stroke-linejoin="round"/>
<path d="M0.75 3.74609H3.75V20.2461H0.75V3.74609Z" stroke="#5E5E5E" stroke-width="1.5" stroke-linecap="round" stroke-linejoin="round"/>
<path d="M20.25 3.74609H23.25V20.2461H20.25V3.74609Z" stroke="#5E5E5E" stroke-width="1.5" stroke-linecap="round" stroke-linejoin="round"/>
</g>
<defs>
<clipPath id="clip0">
<rect width="24" height="24" fill="white"/>
</clipPath>
</defs>
</svg>
